frontend/public/svg/files/file-attachment.svg

<svg width="142" height="190" viewBox="0 0 142 190" fill="none" xmlns="http://www.w3.org/2000/svg">
<g clip-path="url(#clip0)">
<path d="M25.4561 17.3091C25.802 16.1743 26.0178 15.4329 26.2535 14.6965C27.8955 9.68 31.4039 5.48711 36.0523 2.98629C40.7007 0.485487 46.1329 -0.131472 51.2238 1.26277C54.4877 2.18164 57.1256 3.99837 58.6405 7.14286C60.091 10.162 61.4804 13.203 62.9375 16.3239C63.3526 16.4089 63.7726 16.468 64.195 16.5002C74.4096 16.719 84.6249 16.9294 94.8401 17.1315C95.5135 17.1453 96.1896 17.1755 96.8603 17.1315C100.963 16.8756 103.979 18.6812 106.96 21.4516C113.943 27.9414 121.292 34.0359 128.453 40.3354C131.147 42.7054 133.638 45.3158 136.395 47.6031C139.168 49.9003 140.051 52.8424 140.118 56.2311C140.31 65.9851 140.488 75.7403 140.729 85.4935C141.098 100.406 141.663 115.315 141.86 130.229C142.006 141.325 141.703 152.427 141.591 163.527C141.552 167.452 141.451 171.377 141.443 175.302C141.424 183.73 134.678 188.657 127.215 188.798C112.068 189.083 96.9168 189.47 81.7698 189.389C63.137 189.287 44.5056 188.815 25.878 188.348C21.7316 188.142 17.6007 187.693 13.5067 187.004C8.3781 186.268 3.33805 180.378 3.15362 174.795C2.68762 160.678 2.15272 146.559 1.99782 132.437C1.65587 101.367 1.58766 70.2946 1.25752 39.2252C1.20698 34.4543 1.3231 29.8346 3.27636 25.4076C4.79578 21.9664 7.04969 19.2843 10.819 18.2801C12.1302 17.9849 13.4678 17.8231 14.8115 17.7975C18.2744 17.6025 21.7425 17.4745 25.4561 17.3091ZM24.7544 24.2346C22.2564 24.2346 20.0406 24.1469 17.8346 24.2519C12.9337 24.4862 11.5154 25.7659 10.674 30.5487C9.91045 34.6341 9.7337 38.8074 10.1489 42.9428C10.4152 45.3964 10.5501 47.8624 10.5532 50.3304C10.6215 89.9415 10.6733 129.553 10.7087 169.165C10.6874 169.95 10.7179 170.736 10.8 171.518C11.4813 176.623 14.1762 180.021 19.9848 180.248C41.6571 181.105 63.3287 181.108 85.0075 180.739C95.9027 180.553 106.798 180.464 117.689 180.341C120.38 180.31 123.079 180.413 125.765 180.282C130.433 180.055 132.76 177.697 132.71 173.074C132.655 167.919 132.297 162.769 132.207 157.613C132.111 152.116 132.301 146.614 132.141 141.119C131.733 126.877 131.04 112.643 130.77 98.399C130.548 86.7333 130.773 75.0583 130.786 63.388C130.786 62.5348 130.666 61.682 130.602 60.8228C130.2 60.7628 129.795 60.7227 129.39 60.7036C122.429 60.8402 115.467 61.1158 108.507 61.06C105.942 60.9343 103.402 60.4905 100.947 59.7384C98.4309 59.0702 97.0671 57.1999 96.7835 54.5883C96.6989 53.8079 96.5755 53.0305 96.5092 52.2488C95.9323 45.4328 95.3862 38.6139 94.7791 31.8004C94.5933 29.712 94.2488 27.6382 93.9298 25.1979L64.0532 24.5179C64.0532 25.7813 64.0631 26.6543 64.0532 27.5272C63.9948 32.1216 64.1189 36.7322 63.8196 41.3135C63.5025 46.3644 62.1653 51.299 59.8888 55.8189C58.2926 58.9884 55.874 61.2005 52.1854 61.6599C47.3048 62.2729 42.91 60.1951 40.6128 55.8298C39.5479 53.7413 38.7723 51.5174 38.3071 49.2196C37.0949 43.5174 37.9789 37.8303 38.9103 32.178C39.0792 31.1859 39.4254 30.2323 39.9322 29.3629C40.3379 28.6127 40.9762 28.0149 41.7511 27.6586C42.5261 27.3023 43.3956 27.207 44.2292 27.3875C45.021 27.4778 45.7625 27.8213 46.3435 28.3669C46.9244 28.9123 47.3139 29.6308 47.4538 30.4153C47.6305 31.6242 47.6582 32.8499 47.5365 34.0656C47.3823 38.4256 47.1086 42.7835 47.0653 47.1442C47.1353 48.4834 47.4509 49.7983 47.9966 51.0233C48.5046 52.3445 49.5338 52.8952 51.1694 52.0886C54.8265 43.3199 53.8919 34.0029 53.9096 24.8083C50.2341 24.0482 36.3033 24.3446 33.6392 25.2018C32.9639 33.0975 32.3463 41.0323 31.5784 48.9524C31.2568 52.2998 30.7529 55.6268 30.0688 58.9193C29.5752 61.2821 27.7749 62.577 26.0973 62.2836C24.44 61.9935 23.4562 60.5774 23.3931 58.1693C23.3525 56.602 23.4634 55.0295 23.5283 53.4602C23.93 43.8331 24.3363 34.1991 24.7544 24.2346ZM125.517 51.8085L125.66 51.0945L103.436 30.9492L102.923 31.2845C104.014 38.4432 105.105 45.6018 106.228 52.9731L125.517 51.8085ZM52.4899 16.4053C51.7469 14.5078 51.2324 12.9167 50.4986 11.4341C50.127 10.6364 49.5173 9.97306 48.7534 9.5362C43.3261 6.93841 35.9746 10.754 34.5766 17.0187L52.4899 16.4053Z" fill="black"/>
</g>
<defs>
<clipPath id="clip0">
<rect width="141.113" height="189.682" fill="white" transform="translate(0.855469 0.258545)"/>
</clipPath>
</defs>
</svg>

<svg xmlns="http://www.w3.org/2000/svg" width="142" height="190" fill="none" viewBox="0 0 142 190"><g clip-path="url(#a)"><path fill="#000" d="M25.456 17.31c.346-1.136.562-1.877.797-2.613a20.56 20.56 0 0 1 24.97-13.434c3.265.919 5.903 2.735 7.418 5.88 1.45 3.019 2.84 6.06 4.297 9.18q.623.129 1.257.177 15.323.329 30.645.631c.673.014 1.35.044 2.02 0 4.103-.255 7.119 1.55 10.1 4.32 6.983 6.49 14.332 12.585 21.493 18.884 2.694 2.37 5.185 4.98 7.942 7.268 2.773 2.297 3.656 5.24 3.723 8.628.192 9.754.37 19.51.611 29.262.369 14.913.934 29.822 1.131 44.736.146 11.096-.157 22.198-.269 33.298-.039 3.925-.14 7.85-.148 11.775-.019 8.428-6.765 13.355-14.228 13.496-15.147.285-30.298.672-45.445.591-18.633-.102-37.264-.574-55.892-1.041a106 106 0 0 1-12.371-1.344c-5.129-.736-10.169-6.626-10.353-12.209-.466-14.117-1.001-28.236-1.156-42.358-.342-31.07-.41-62.142-.74-93.212-.051-4.77.065-9.39 2.018-13.817 1.52-3.442 3.774-6.124 7.543-7.128a20 20 0 0 1 3.992-.483c3.463-.195 6.932-.323 10.645-.488m-.702 6.925c-2.498 0-4.713-.088-6.92.017-4.9.234-6.319 1.514-7.16 6.297a43.7 43.7 0 0 0-.525 12.394c.266 2.453.401 4.92.404 7.387q.102 59.418.156 118.835-.033 1.179.091 2.353c.681 5.105 3.376 8.503 9.185 8.73 21.672.857 43.344.86 65.022.491 10.896-.186 21.791-.275 32.682-.398 2.691-.031 5.39.072 8.076-.059 4.668-.227 6.995-2.585 6.945-7.208-.055-5.155-.413-10.305-.503-15.461-.096-5.497.094-10.999-.066-16.494-.408-14.242-1.101-28.476-1.371-42.72-.222-11.666.003-23.34.016-35.011 0-.853-.12-1.706-.184-2.565q-.604-.09-1.212-.12c-6.961.137-13.923.413-20.883.357a31 31 0 0 1-7.56-1.322c-2.516-.668-3.88-2.538-4.163-5.15-.085-.78-.209-1.557-.275-2.34-.577-6.815-1.123-13.634-1.73-20.448-.186-2.088-.53-4.162-.85-6.602l-29.876-.68c0 1.263.01 2.136 0 3.01-.058 4.594.066 9.204-.233 13.785a37.5 37.5 0 0 1-3.931 14.506c-1.596 3.17-4.015 5.381-7.704 5.84-4.88.614-9.275-1.464-11.572-5.83a25.8 25.8 0 0 1-2.306-6.61c-1.212-5.702-.328-11.389.603-17.041a8.4 8.4 0 0 1 1.022-2.815 3.94 3.94 0 0 1 4.297-1.976 3.7 3.7 0 0 1 3.225 3.028c.176 1.21.204 2.435.082 3.65-.154 4.36-.427 8.718-.47 13.08a11 11 0 0 0 .93 3.878c.509 1.321 1.538 1.872 3.173 1.066 3.658-8.77 2.723-18.086 2.74-27.28-3.675-.76-17.606-.464-20.27.393-.675 7.895-1.293 15.83-2.06 23.75a93 93 0 0 1-1.51 9.967c-.494 2.363-2.294 3.658-3.972 3.365-1.657-.29-2.64-1.707-2.704-4.115-.04-1.567.07-3.14.135-4.709.402-9.627.808-19.26 1.226-29.225m100.763 27.574.143-.715-22.224-20.145-.513.335 3.305 21.69zM52.49 16.405c-.743-1.897-1.258-3.488-1.991-4.97a4.26 4.26 0 0 0-1.746-1.899c-5.427-2.598-12.778 1.218-14.176 7.483z"/></g><defs><clipPath id="a"><path fill="#fff" d="M.855.259h141.113V189.94H.855z"/></clipPath></defs></svg>
